images/dist/icons/speed.svg

<svg width="114" height="114" viewBox="0 0 114 114" fill="none" xmlns="http://www.w3.org/2000/svg">
<g filter="url(#filter0_d)">
<path d="M84.5 101H29.5C20.3865 101 13 93.6135 13 84.5V29.5C13 20.3865 20.3865 13 29.5 13H84.5C93.6135 13 101 20.3865 101 29.5V84.5C101 93.6135 93.6135 101 84.5 101Z" fill="#FFF9DD"/>
<path d="M39.9941 66.2208C38.0306 68.1815 35.3383 77.0475 35.0386 78.0513C34.9423 78.3758 35.0303 78.725 35.2696 78.9615C35.4428 79.1348 35.6766 79.231 35.9186 79.231C36.0066 79.231 36.0946 79.2173 36.1826 79.1925C37.1863 78.8928 46.0496 76.1978 48.0131 74.237C50.2241 72.026 50.2241 68.4318 48.0131 66.2235C45.7993 64.0098 42.2051 64.0098 39.9941 66.2208Z" fill="#FFE777"/>
<path d="M78.8927 58.8809C78.6755 58.3694 78.1722 58.0367 77.6167 58.0422L74.4075 58.0669L74.3827 54.8577C74.38 54.3022 74.039 53.8017 73.5247 53.5927C73.0105 53.3837 72.4192 53.5047 72.0287 53.9007L67.4802 58.5179C67.2245 58.7764 67.0815 59.1284 67.0842 59.4942L67.1145 63.5257C67.098 63.5422 67.076 63.5477 67.0595 63.5642L61.6007 69.1054C61.0672 69.6472 61.0727 70.5162 61.6145 71.0497C61.884 71.3164 62.2387 71.4484 62.5907 71.4457C62.9427 71.4429 63.292 71.3054 63.5587 71.0359L69.0175 65.4947C69.034 65.4782 69.0395 65.4562 69.0532 65.4397L73.0847 65.4094C73.4477 65.4067 73.797 65.2582 74.0527 64.9997L78.6012 60.3824C78.9945 59.9864 79.1072 59.3952 78.8927 58.8809Z" fill="#FFE777"/>
<path d="M62.4835 57.7287C63.193 57.7287 63.8558 57.792 64.5213 57.8965C64.711 57.2557 65.0382 56.6617 65.5195 56.1722L70.068 51.5467C70.838 50.763 71.9105 50.3147 73.0078 50.3147C73.5385 50.3147 74.0583 50.4165 74.5532 50.6145C74.7265 50.6832 74.864 50.8015 75.0208 50.8922C77.6333 46.033 79.11 40.6512 78.9945 35.6765C78.9835 35.187 78.5903 34.791 78.098 34.78C69.507 34.626 59.7115 39.1222 53.5103 46.1017C47.584 46.2145 41.8117 48.6482 37.563 52.9025C37.3155 53.1472 37.2275 53.513 37.3347 53.843C37.4447 54.1757 37.7308 54.415 38.0773 54.4645L45.1448 55.4792L44.273 56.4582C43.9485 56.8212 43.965 57.374 44.3088 57.7205L51.6017 65.0272C53.4085 60.7812 57.594 57.781 62.4835 57.7287ZM63.1655 44.1355C64.953 42.3452 67.8625 42.3452 69.6473 44.1355C71.432 45.9257 71.432 48.8407 69.6473 50.6282C68.7535 51.522 67.5793 51.9702 66.405 51.9702C65.2308 51.9702 64.0565 51.522 63.1627 50.6282C61.3807 48.838 61.3808 45.9257 63.1655 44.1355Z" fill="#FFD200"/>
<path d="M71.5338 68.1734H70.2331L68.0523 70.3926C67.9065 73.2719 65.5415 75.5434 62.6265 75.5626C59.5823 75.5984 57.1073 73.1426 57.0715 70.1176C57.0523 67.1834 59.3265 64.7826 62.2058 64.5819L64.3508 62.4011V61.0618C63.7458 60.9518 63.1408 60.8969 62.5165 60.8969C57.4565 60.9519 53.3673 65.0769 53.4058 70.1369C53.4608 75.1969 57.605 79.2669 62.6458 79.2311C67.7058 79.1954 71.7951 75.0511 71.7401 70.0104C71.7373 69.3834 71.663 68.7619 71.5338 68.1734Z" fill="#FFE777"/>
</g>
<defs>
<filter id="filter0_d" x="0" y="0" width="114" height="114" filterUnits="userSpaceOnUse" color-interpolation-filters="sRGB">
<feFlood flood-opacity="0" result="BackgroundImageFix"/>
<feColorMatrix in="SourceAlpha" type="matrix" values="0 0 0 0 0 0 0 0 0 0 0 0 0 0 0 0 0 0 127 0"/>
<feMorphology radius="12" operator="erode" in="SourceAlpha" result="effect1_dropShadow"/>
<feOffset/>
<feGaussianBlur stdDeviation="12.5"/>
<feColorMatrix type="matrix" values="0 0 0 0 1 0 0 0 0 0.823529 0 0 0 0 0 0 0 0 0.15 0"/>
<feBlend mode="normal" in2="BackgroundImageFix" result="effect1_dropShadow"/>
<feBlend mode="normal" in="SourceGraphic" in2="effect1_dropShadow" result="shape"/>
</filter>
</defs>
</svg>

<svg width="114" height="114" fill="none" xmlns="http://www.w3.org/2000/svg"><g filter="url(#filter0_d)"><path d="M84.5 101h-55C20.387 101 13 93.614 13 84.5v-55C13 20.387 20.387 13 29.5 13h55c9.114 0 16.5 7.387 16.5 16.5v55c0 9.114-7.386 16.5-16.5 16.5z" fill="#FFF9DD"/><path d="M39.994 66.22c-1.963 1.962-4.656 10.828-4.955 11.831a.918.918 0 001.144 1.141c1.003-.3 9.867-2.994 11.83-4.955a5.67 5.67 0 00-8.019-8.016zm38.899-7.34a1.374 1.374 0 00-1.276-.838l-3.21.025-.024-3.21a1.376 1.376 0 00-2.354-.956l-4.549 4.617c-.255.258-.398.61-.396.976l.03 4.032c-.016.016-.038.022-.055.038l-5.458 5.541a1.374 1.374 0 00.99 2.34c.352-.002.701-.14.968-.41l5.459-5.54c.016-.017.022-.039.035-.055l4.032-.03a1.38 1.38 0 00.968-.41l4.548-4.618c.394-.396.506-.987.292-1.501z" fill="#FFE777"/><path d="M62.483 57.729c.71 0 1.373.063 2.038.168.19-.641.517-1.235.998-1.725l4.549-4.625a4.147 4.147 0 012.94-1.232c.53 0 1.05.102 1.545.3.174.068.311.186.468.277 2.612-4.859 4.089-10.24 3.974-15.216a.917.917 0 00-.897-.896c-8.591-.154-18.386 4.342-24.588 11.322a23.263 23.263 0 00-15.947 6.8.916.916 0 00.514 1.562l7.068 1.015-.872.98a.92.92 0 00.036 1.261l7.293 7.307c1.806-4.246 5.992-7.246 10.882-7.298zm.683-13.593a4.583 4.583 0 016.481 0 4.606 4.606 0 010 6.492 4.572 4.572 0 01-3.242 1.342 4.573 4.573 0 01-3.242-1.342 4.608 4.608 0 01.003-6.492z" fill="#FFD200"/><path d="M71.534 68.173h-1.3l-2.182 2.22a5.45 5.45 0 01-5.426 5.17c-3.044.035-5.519-2.42-5.554-5.445a5.516 5.516 0 015.134-5.536l2.145-2.18v-1.34a10.18 10.18 0 00-1.834-.165c-5.06.055-9.15 4.18-9.111 9.24.055 5.06 4.199 9.13 9.24 9.094 5.06-.036 9.15-4.18 9.094-9.22a8.792 8.792 0 00-.206-1.838z" fill="#FFE777"/></g><defs><filter id="filter0_d" x="0" y="0" width="114" height="114" filterUnits="userSpaceOnUse" color-interpolation-filters="sRGB"><feFlood flood-opacity="0" result="BackgroundImageFix"/><feColorMatrix in="SourceAlpha" values="0 0 0 0 0 0 0 0 0 0 0 0 0 0 0 0 0 0 127 0"/><feMorphology radius="12" in="SourceAlpha" result="effect1_dropShadow"/><feOffset/><feGaussianBlur stdDeviation="12.5"/><feColorMatrix values="0 0 0 0 1 0 0 0 0 0.823529 0 0 0 0 0 0 0 0 0.15 0"/><feBlend in2="BackgroundImageFix" result="effect1_dropShadow"/><feBlend in="SourceGraphic" in2="effect1_dropShadow" result="shape"/></filter></defs></svg>
